X: 12
T: All My Love
C:From Pete Sokolow, Klez Kamp 2001
R:Waltz
Z:Terry Traub
M:3/4
K:Dm
L: 1/4
|: "Dm"A3 | "A7"^C3 | "Dm"D3-| D F A|"D7" d3 | ^F3 | "Gm"G3-| G A B| "A7"A3| E3| "Dm"F E D|
"Gm"G A B| [1 "Bm7b5"F3| "E7" D3| "A7" E3-|E3:| [2 "G#dim" F3| "A7" E3| "Dm" D3-|D "D7"d c|
"Gm" B > A G| z B d| "Dm" A >^G A| "Dm" z A B| "A7" G > F E| "A7" z G A| "Dm" F > E D| z "D7"d c|
"Gm" B > A G| z B d| "Dm" A >^G A| z "Bm7b5"A =B| "A/E" ^c2 c| "E7"=B E B| "A"A3| "A7"A/_B/A/G/F/G/|
"Dm"A3 | "A7"^C3 | "Dm"D3-| D F A|"D7" d3 | ^F3 | "Gm"G3-| G A B| "A7"A3| e3| "Dm"=f e d|"Gm"g a b|\
"G#dim"=F3| "A7"E3| "Dm" D3-|D2 z|]
%%sep 2 1 500
